packages/astro-components-stencil/src/icons/view-array.svg

<svg xmlns="http://www.w3.org/2000/svg" viewBox="0 0 24 24"><g xmlns="http://www.w3.org/2000/svg" id="view-array" fill-rule="nonzero">
            <path d="M5 18h1c.55 0 1-.45 1-1V6c0-.55-.45-1-1-1H5c-.55 0-1 .45-1 1v11c0 .55.45 1 1 1zM18 6v11c0 .55.45 1 1 1h1c.55 0 1-.45 1-1V6c0-.55-.45-1-1-1h-1c-.55 0-1 .45-1 1zM9 18h7c.55 0 1-.45 1-1V6c0-.55-.45-1-1-1H9c-.55 0-1 .45-1 1v11c0 .55.45 1 1 1z"/>
        </g></svg>

<svg width="24" height="24" viewBox="0 0 24 24" fill="none" xmlns="http://www.w3.org/2000/svg">
<path fill-rule="evenodd" clip-rule="evenodd" d="M5 18H6C6.55 18 7 17.55 7 17V6C7 5.45 6.55 5 6 5H5C4.45 5 4 5.45 4 6V17C4 17.55 4.45 18 5 18ZM18 6V17C18 17.55 18.45 18 19 18H20C20.55 18 21 17.55 21 17V6C21 5.45 20.55 5 20 5H19C18.45 5 18 5.45 18 6ZM16 18H9C8.45 18 8 17.55 8 17V6C8 5.45 8.45 5 9 5H16C16.55 5 17 5.45 17 6V17C17 17.55 16.55 18 16 18Z" fill="black"/>
</svg>
